**kern	**kern
*staff2	*staff1
*clefF4	*clefG2
*k[b-]	*k[b-]
*M3/4	*M3/4
=-	=-
4r	4e' 4g'
=203	=203
16CCLL	(4c 4e
16C	.
16BB	.
16CJJ	.
16ELL	4g)
16C	.
16BB	.
16CJJ	.
16GGLL	4e' 4g'
16C	.
16EE	.
16GGJJ	.
=204	=204
16CCLL	(4e 4cc
16C	.
16BB	.
16CJJ	.
16ELL	4g)
16C	.
16BB	.
16CJJ	.
16GGLL	4g'
16C	.
16EE	.
16GGJJ	.
=205	=205
16CCLL	(4c 4e
16C	.
16BB	.
16CJJ	.
16ELL	4g)
16C	.
16BB	.
16CJJ	.
16GGLL	4e' 4g'
16C	.
16EE	.
16GGJJ	.
=206	=206
4CC	4e' 4cc'
4C	4r
4r	4ee' 4gg'
=207	=207
16CLL	(4cc 4ee
16c	.
16B	.
16cJJ	.
16eLL	4gg)
16c	.
16B	.
16cJJ	.
16GLL	4ee' 4gg'
16c	.
16E	.
16GJJ	.
=208	=208
16CLL	(4ee 4ccc
16c	.
16B	.
16cJJ	.
16eLL	4gg)
16c	.
16B	.
16cJJ	.
16GLL	4gg'
16c	.
16E	.
16GJJ	.
=209	=209
16CLL	(4cc 4ee
16c	.
16B	.
16cJJ	.
16eLL	4gg)
16c	.
16B	.
16cJJ	.
16GLL	4ee' 4gg'
16c	.
16E	.
16GJJ	.
=210	=210
4C	4ee 4ccc
4c	4r
4r	4cc
=211	=211
16CLL	(4cc
16c	.
16B	.
16cJJ	.
16BLL	4dd
16c	.
16B	.
16cJJ	.
16B-LL	4ee
16c	.
16B-	.
16cJJ	.
=212	=212
16ALL	4ff
16c	.
16B	.
16cJJ	.
16G#LL	4ee
16c	.
16B	.
16cJJ	.
16ALL	4ff)
16c	.
16B	.
16cJJ	.
=213	=213
16ALL	(4cc
16c	.
16B	.
16cJJ	.
16GLL	4ee
16c	.
16B-	.
16cJJ	.
16FLL	4ff
16c	.
16A	.
16cJJ	.
=214	=214
16ELL	4gg
16c	.
16G	.
16cJJ	.
16D#LL	4ff#
16c	.
16F#	.
16cJJ	.
16ELL	4gg)
16c	.
16G	.
16cJJ	.
=215	=215
16ELL	(4cc
16c	.
16G	.
16cJJ	.
16DLL	4ff
16c	.
16F	.
16cJJ	.
16CLL	4gg
16c	.
16E	.
16cJJ	.
=216	=216
16FLL	4aa
16c	.
16A	.
16cJJ	.
16ELL	4gg#
16c	.
16G#	.
16cJJ	.
16FLL	4aa)
16c	.
16A	.
16cJJ	.
=217	=217
16GLL	(4b 4bb
16f	.
16d	.
16fJJ	.
16GLL	4a 4aa
16e	.
16c	.
16eJJ	.
16GLL	4b) 4bb
16f	.
16d	.
16fJJ	.
=218	=218
16cLL	2.cc 2.ccc
16g	.
16e	.
16cJJ	.
16GLL	.
16e	.
16c	.
16GJJ	.
16ELL	.
16c	.
16G	.
16EJJ	.
=219	=219
16CLL	2.r
16G	.
16E	.
16CJJ	.
16GGLL	.
16E	.
16C	.
16GGJJ	.
16EELL	.
16C	.
16GG	.
16EEJJ	.
=220	=220
16CCLL	2.r
16EE	.
16GG	.
16CJJ	.
16ELL	.
16C	.
16G	.
16EJJ	.
16cLL	.
16G	.
16e	.
16cJJ	.
=221	=221
16gLL	2r
16e	.
16b-	.
16gJJ	.
16eLL	.
16c	.
16B-	.
16GJJ	.
*-	*-
